public/topics/25.svg

<svg width="250" height="250" viewBox="0 0 250 250" fill="none" xmlns="http://www.w3.org/2000/svg">
<rect width="250" height="250" rx="30" fill="#00FFFF"/>
<path d="M58.2 174.2C62.7333 174.467 65.7333 174.6 67.2 174.6C71.7333 174.6 75.7333 174.533 79.2 174.4C82.8 174.267 85.8667 174.133 88.4 174C94.9333 173.6 100.8 173.4 106 173.4C111.067 173.4 114.8 174.733 117.2 177.4C119.6 180.067 120.8 183.6 120.8 188C120.8 190.133 119.4 191.867 116.6 193.2C113.8 194.4 110.933 195 108 195C105.467 195 100.2 194.733 92.2 194.2C82.6 193.4 75.0667 193 69.6 193C66.6667 193 63.2 193.2 59.2 193.6C57.6 193.733 55.6667 193.867 53.4 194C51.1333 194.133 48.6 194.2 45.8 194.2C40.4667 194.2 36.4 193.467 33.6 192C30.8 190.533 29.4 187.867 29.4 184C29.4 180.667 30.7333 177.267 33.4 173.8C36.0667 170.333 39.8 166.2 44.6 161.4L49.4 156.6C51.5333 154.333 55.4667 150.467 61.2 145C70.6667 136.467 78 128.933 83.2 122.4C88.5333 115.867 91.2 109.4 91.2 103C91.2 98.8667 89.2 95.5333 85.2 93C81.3333 90.3333 76.8667 89 71.8 89C64.0667 89 58.4667 90.7333 55 94.2C51.6667 97.5333 50 102.4 50 108.8C50 110.4 49.0667 111.867 47.2 113.2C45.4667 114.4 43.2667 115 40.6 115C36.8667 115 34.2667 113.667 32.8 111C31.3333 108.333 30.6 105.067 30.6 101.2C30.6 95.0667 32.4667 89.6667 36.2 85C39.9333 80.2 45 76.4667 51.4 73.8C57.9333 71.1333 65.1333 69.8 73 69.8C78.6 69.8 84.4 71.2 90.4 74C96.5333 76.6667 101.6 80.3333 105.6 85C109.733 89.5333 111.8 94.5333 111.8 100C111.8 108.267 109.733 116.133 105.6 123.6C101.467 131.067 96.6 137.733 91 143.6C85.5333 149.333 78.4 156.133 69.6 164C65.3333 167.6 61.5333 171 58.2 174.2ZM163.273 90.2C162.34 93.9333 161.74 98.8667 161.473 105C161.207 110.333 160.807 114.333 160.273 117C164.14 115.4 167.807 114.4 171.273 114C174.74 113.467 179.14 113.2 184.473 113.2C192.74 113.2 199.94 115.133 206.073 119C212.207 122.733 216.873 127.8 220.073 134.2C223.273 140.467 224.873 147.2 224.873 154.4C224.873 157.2 223.94 161 222.073 165.8C220.207 170.467 218.273 174.067 216.273 176.6C211.607 182.733 206.207 187.467 200.073 190.8C193.94 194 187.273 195.6 180.073 195.6C174.607 195.6 169.607 194.867 165.073 193.4C160.673 191.8 155.94 189.667 150.873 187C145.673 184.2 141.873 181.333 139.473 178.4C137.207 175.333 136.073 171.533 136.073 167C136.073 164.6 137.073 162.667 139.073 161.2C141.207 159.6 143.207 158.8 145.073 158.8C146.273 158.8 147.34 159.133 148.273 159.8C149.207 160.467 150.74 161.8 152.873 163.8L157.873 168.6C161.073 171.267 164.207 173.267 167.273 174.6C170.473 175.933 174.34 176.6 178.873 176.6C183.007 176.6 186.34 176.067 188.873 175C193.94 173 197.873 170.4 200.673 167.2C203.607 164 205.073 158.867 205.073 151.8C205.073 145 202.807 139.733 198.273 136C193.74 132.133 186.073 130.2 175.273 130.2C173.807 130.2 171.673 130.6 168.873 131.4C166.073 132.2 163.34 133.067 160.673 134C154.273 136.133 150.34 137.2 148.873 137.2C147.007 137.2 145.14 136.4 143.273 134.8C141.407 133.2 140.473 131.067 140.473 128.4C142.873 112.267 144.073 98.8667 144.073 88.2L143.873 83.2C143.607 80.8 143.473 78.8 143.473 77.2C143.473 74.8 144.74 73 147.273 71.8C149.94 70.4667 152.673 69.8 155.473 69.8C157.873 69.8 163.073 70.2 171.073 71L180.673 71.8C181.873 71.9333 183.673 72 186.073 72L193.473 71.8C194.94 71.6667 197.073 71.6 199.873 71.6C203.873 71.6 207.207 72.2 209.873 73.4C212.54 74.6 213.873 76.5333 213.873 79.2C213.873 83.3333 213.207 86.3333 211.873 88.2C210.54 90.0667 209.007 91 207.273 91C205.673 91 203.007 90.7333 199.273 90.2C194.34 89.6667 188.54 89.4 181.873 89.4C177.207 89.4 171.007 89.6667 163.273 90.2Z" fill="white"/>
</svg>

<svg xmlns="http://www.w3.org/2000/svg" width="250" height="250" fill="none" viewBox="0 0 250 250"><rect width="250" height="250" fill="#0ff" rx="30"/><path fill="#fff" d="M58.2 174.2q6.8.4 9 .4 6.8 0 12-.2 5.4-.2 9.2-.4 9.8-.6 17.6-.6 7.6 0 11.2 4t3.6 10.6q0 3.2-4.2 5.2-4.2 1.8-8.6 1.8-3.8 0-15.8-.8-14.4-1.2-22.6-1.2-4.4 0-10.4.6-2.4.2-5.8.4t-7.6.2q-8 0-12.2-2.2t-4.2-8q0-5 4-10.2t11.2-12.4l4.8-4.8q3.2-3.4 11.8-11.6 14.2-12.8 22-22.6 8-9.8 8-19.4 0-6.2-6-10-5.8-4-13.4-4-11.6 0-16.8 5.2-5 5-5 14.6 0 2.4-2.8 4.4-2.6 1.8-6.6 1.8-5.6 0-7.8-4t-2.2-9.8q0-9.2 5.6-16.2 5.6-7.2 15.2-11.2 9.8-4 21.6-4 8.4 0 17.4 4.2 9.2 4 15.2 11 6.2 6.8 6.2 15 0 12.4-6.2 23.6t-14.6 20q-8.2 8.6-21.4 20.4-6.4 5.4-11.4 10.2m105.073-84q-1.4 5.6-1.8 14.8-.399 8-1.2 12 5.8-2.4 11-3 5.2-.8 13.2-.8 12.4 0 21.6 5.8 9.2 5.6 14 15.2 4.8 9.4 4.8 20.2 0 4.2-2.8 11.4-2.8 7-5.8 10.8-6.999 9.2-16.2 14.2-9.2 4.8-20 4.8-8.199 0-15-2.2-6.6-2.4-14.2-6.4-7.8-4.2-11.4-8.6-3.4-4.6-3.4-11.4 0-3.6 3-5.8 3.201-2.4 6-2.4 1.8 0 3.2 1t4.6 4l5 4.8q4.8 4 9.4 6 4.8 2 11.6 2 6.2 0 10-1.6 7.6-3 11.8-7.8 4.4-4.8 4.4-15.4 0-10.2-6.8-15.8-6.8-5.8-23-5.8-2.2 0-6.4 1.2t-8.2 2.6q-9.6 3.2-11.8 3.2-2.8 0-5.6-2.4t-2.8-6.4q3.6-24.2 3.6-40.2l-.2-5q-.4-3.6-.4-6 0-3.6 3.8-5.4 4-2 8.2-2 3.6 0 15.6 1.2l9.6.8q1.8.2 5.4.2l7.4-.2q2.2-.2 6.4-.2 6 0 10 1.8t4 5.8q0 6.2-2 9t-4.6 2.8q-2.4 0-8-.8-7.4-.8-17.4-.8-6.999 0-18.6.8"/></svg>
